X: 1120
T: Hüzzam Aranağme (Ağıraksak)
C: ?
O: Turkey
F: http://compmusic.upf.edu/node/140
N: huzzam--aranagme--agiraksak--1--
N: makam= huzzam
N: form= aranagme
N: usul= agiraksak = 9/4
M: 9/4
L: 1/16
K: C _1/4B _3/4e ^3/4f 
Q: 1/4=69
%%MIDI tuningsystem comma53
(3g2f2e2 (3d2e2f2 (3g2f2e2 d4 d3/2_1/4e/dc B3/2A/G2 B2^AB c2Bc d2cd  | 
w:  ARANAĞME  | 
e2dc f2ed g2fe e2dc a2gf f2ed g2f4fg fedc  | 
w:   | 
g2f4ed dg2g g2fe a3g fgab c'3d' b3c' a3_b  | 
w:   | 
g3a f3g fed2 g2fe d3c dccB B4 cdef g4  | 
w:   | 
(3g2f2e2 (3d2e2f2 (3g2f2e2 d4 d3/2_1/4e/dc B3/2A/G2 B2^AB c2Bc d2cd  | 
w:  ARANAĞME  | 
e2dc f2ed g2fe e2dc a2gf f2ed g2f4fg fedc  | 
w:   | 
g2f4ed dg2g g2fe a3g fgab c'3d' b3c' a3_b  | 
w:   | 
g3a f3g fed2 d3c dccB B8 z8  | |


